X:1
T:Polly Put the Kettle On [1]
M:2/4
L:1/8
B:Harding’s All Round Collection, No. 10 (1905)
Z:AK/Fiddler’s Companion
K:D
a/b/a/g/ f/d/d/f/ | g/B/e/d/ c/A/A | a/b/a/g/ f/d/d/c/ | B/d/c/e/ dz :|
|: g/f/g/e/ f/d/d/f/ | g/B/e/d/ c/A/A/e/ | f/d/g/e/ f/d/d/f/ | B/d/c/e/ dz :|

